X:1
T:A Minor        Amos Pilsbury, 1799
T:Charles Wesley, 1744 Hymns in Time of Trouble No. 1 774. 47.
T:Hamburgh
T:Transcribed from  The United States Sacred Harmony, 1799.
%%score [ 1 2 3 4 ]
L:1/8
Q:1/4=80
M:4/4
K:C
V:1 treble nm="Tr." snm="Tr."
V:2 treble nm="C." snm="C."
V:3 treble-8 nm="T." snm="T."
V:4 bass nm="B." snm="B."
V:1
"^1. My present help ___ in trouble, My soul’s    e  –  ter   –  nal       lo–ver,       Beneath thy    shade   I ____ hide   my __  head   Till  all ____\n2. O  bring me by ____thy mercy  Through  this se–vere  temp–ta–tion,     And   all    day  long   My ___ joy  – ful  __  song   Shall pub   –" c4 c2 A2 | %1
 (c3 d e2) e2 | e2 e4 e2 | (c2 e2 f2) e2 | (e3 d) c4 | B4 B4 | z2 ^G2 A4 | (B2 cA) B4 | %8
 (c2 d2) e4 | (g2 d2) e4 | B2 (c3 B A2) | %11
"^1. the  storm ___   is  o– ver,        Till  all ___  the      storm      is     o  – ver.\n2.  – lish  thy ___  sal–va–tion,  Shall  pub –  lish        thy       sal – va– tion." ^G2 (A3 B c2) | %12
 A2 B4 B2- | B4 z2 B2 | (Bc d2 e2) B2 | A4 ^G4 | [Ac]4 A4- | A8 |] %18
V:2
"^3. Thine arm is still unshortened, And rea   –   dy   to ______de–li–ver,        Thy glorious  name  Re – mains     the __  same,  A    rock\n4. This, this is  our sure  re–fuge, When earth  and  hell ____ oppress us,         For earth and hell    Bow  down,  and __   feel    Th’al–migh –" E4 E2 A2 | %1
 (G3 F E2) G2 | A2 A4 G2 | A6 A2 | (G3 A G2) F2 | E4 E4 | z2 E2 E4 | (D2 C2) G4 | (E2 ^G2) A4 | %9
 (E3 F) G4 | E2 A6 | %11
"^3. that   stands ___ for ev – er,       A  rock       that          stands    for     ev – er.\n4. – ty    name ___ of  Je–sus,    Th’al–migh – ty           name     of     Je – sus." ^G2 (F3 =G F2) | %12
 A2 G4 E2- | E4 z2 E2 | A4 (C3 D) | E4 ^G4 | E4 E4- | E8 |] %18
V:3
"^5.  I  now ad–mire the worthies, And saints  in    sa     –    cred    sto–ry;     Their steps pur–sue,  Their   won  –   ders      do,    And  e    –\n6. By faith they waxed courageous, And bade their foes   de – fi–ance,     Strong  in the Lord,    E  –   scaped     the   sword,  And  stopped" A4 A2 f2 | %1
 (e3 d c2) B2 | c2 A4 B2 | (c2 A2 d2) c2 | B4 A4 | B4 B4 | z2 B2 c4 | (B2 A2) d4 | %8
 (c2 B2) (e2 c2) | (B2 A2) (A2 G2) | E2 (A3 G A2) | %11
"^5. –mu – late  their glo–ry,        And  e    –   mu    –    late      their  glo – ry.\n6. the  mouths  of   li–ons,        And  stopped  the   mouths  of     li – ons." B2 (c3 B c2) | %12
 d2 e4 e2- | e4 z2 e2 | (de f2) (e2 d2) | c4 B4 | A4 A4- | A8 |] %18
V:4
"^7. By faith they conquered kingdoms, And high–er   rose    and   higher,  Marched through the sea  Con– voyed   by        thee,    And  walked\n   8. Them in  the bur   –   ning furnace Thou didst, O Lord,  de –li –ver:            And  in  the   flame  Thy     help      I         claim,    And   trust" A,4 A,2 ^D,2 | %1
 E,6 E,2 | A,,2 A,,4 E,2 | A,6 A,2 | G,4 C,4 | E,4 E,4 | z2 E,2 C,4 | (E,2 F,2) G,4 | E,4 A,4 | %9
 G,4 C,4 | E,2 [F,A,]6 | %11
"^7. un – hurt        in   fi–re,          And  walked  un   –    hurt     in      fi – re.\n8. in     thee        for ev–er,          And   trust       in          thee    for     ev– er." E,2 A,6 | %12
 D,2 E,4 E,2- | E,4 z2 E,2 | %14
"^__________________________________________________________________________\nEdited by B. C. Johnston, 2018.   1. Extensively re-barred to avoid need for fermata. \n   2. Measure 10, Tenor: grace quarter-note converted to normal quarter-note.\n   3. Measure 12, Counter: sharp on first note, rather than the next note; probably a misprint.\n   4. Measure 14, Treble:  last note changed from A to B.\n   5. These words substituted for the original,  by Charles Wesley, Head of thy church triumphant." A,4 (A,2 G,2) | %15
 (C,3 D,) E,4 | A,,4 A,,4- | A,,8 |] %18

